X:139
T:Tom Tully
B:Terry "Cuz" Teahan "Sliabh Luachra on Parade" 1980
Z:Patrick Cavanagh
M:4/4
L:1/8
R:Set Dance
K:G
Bc | dcBA Bgfg | e4 d4 | cdcB ABAG | F4 D4 | 
DEFG A2B2 | c2de d2c2 | BAGA E2F2 | G6 :| 
| d2 | g2bg e2ag | f4 d4 | g2bg e2ag | f4 d2ef | 
gddd gddd | gdgd gddd | g2f2 edcB | ABAG F2E2 | 
DEFG A2B2 | c2de d2c2 | BAGA E2F2 | G6 :|| 

